src/16/panel/twitch-indicator.svg

<svg xmlns="http://www.w3.org/2000/svg" width="16" height="16"><defs><style id="current-color-scheme" type="text/css"></style></defs><path d="M2 1v11h3v3l3-3h4l3-3V1H2zm3 3h2v5H5V4zm5 0h2v5h-2V4z" fill="currentColor" fill-rule="evenodd" color="#bebebe"/></svg>

<svg xmlns="http://www.w3.org/2000/svg" width="16" height="16" version="1.1">
 <defs>
  <style id="current-color-scheme" type="text/css">
   .ColorScheme-Text { color:#dfdfdf; } .ColorScheme-Highlight { color:#4285f4; }
  </style>
 </defs>
 <path style="fill:currentColor;fill-rule:evenodd" class="ColorScheme-Text" d="M 2 1 L 2 12 L 5 12 L 5 15 L 8 12 L 12 12 L 15 9 L 15 1 L 2 1 z M 5 4 L 7 4 L 7 9 L 5 9 L 5 4 z M 10 4 L 12 4 L 12 9 L 10 9 L 10 4 z"/>
</svg>
